src/public/svg/02n.svg

<svg xmlns="http://www.w3.org/2000/svg" style="isolation:isolate" width="514.451" height="512"><path d="M513.493 305.414a12.578 12.578 0 00-9.963-7.654c-40.949-5.434-76.186-32.467-91.962-70.551-15.775-38.085-9.976-82.12 15.137-114.917a12.572 12.572 0 00-8.328-20.11c-24.497-3.254-49.54.037-72.417 9.512-43.268 17.922-73.74 55.202-83.634 99.002-20.043-22.638-49.579-36.649-81.286-36.649-59.245 0-107.445 47.246-107.445 105.317 0 .205 0 .407.002.612-39.739 2.989-71.146 35.674-71.146 75.422 0 41.708 34.581 75.639 77.088 75.639H286.34c37.259 0 69.717-20.509 86.269-50.615 9.123 1.822 18.308 2.745 27.473 2.745 18.282 0 36.47-3.622 53.844-10.818 22.877-9.477 42.909-24.857 57.934-44.479a12.57 12.57 0 001.633-12.456zm-227.155 90.473H79.539c-28.639 0-51.938-22.65-51.938-50.489 0-27.841 23.299-50.493 51.938-50.493 1.767 0 3.733.132 6.18.419a12.553 12.553 0 0010.478-3.726 12.574 12.574 0 003.425-10.579c-.581-3.989-.877-7.911-.877-11.655 0-44.204 36.917-80.167 82.295-80.167 35.993 0 68.312 23.377 78.736 56.888.134.471.297.929.483 1.375 2.188 5.421 7.879 8.68 13.734 7.688a74.787 74.787 0 0112.345-1.025c40.138 0 72.791 31.798 72.791 70.881 0 39.085-32.653 70.883-72.791 70.883zM444.3 339.113c-20.074 8.315-41.455 10.802-62.528 7.401a94.1 94.1 0 002.509-21.508c0-52.953-43.937-96.031-97.941-96.031-.765 0-1.529.052-2.294.068 1.09-45.499 28.678-86.358 71.54-104.111a115.944 115.944 0 0138.766-8.683c-19.711 36.918-22.274 81.342-6.017 120.586 16.253 39.239 49.482 68.841 89.521 81.008a116.021 116.021 0 01-33.556 21.27z" fill="white"/></svg>

<?xml version="1.0" standalone="no"?><!-- Generator: Gravit.io --><svg xmlns="http://www.w3.org/2000/svg" xmlns:xlink="http://www.w3.org/1999/xlink" style="isolation:isolate" viewBox="0 0 514.451 512" width="514.451" height="512"><path d=" M 513.493 305.414 C 511.776 301.268 507.979 298.352 503.53 297.76 C 462.581 292.326 427.344 265.293 411.568 227.209 C 395.793 189.124 401.592 145.089 426.705 112.292 C 429.433 108.729 430.057 103.981 428.34 99.834 C 426.623 95.688 422.826 92.772 418.377 92.182 C 393.88 88.928 368.837 92.219 345.96 101.694 C 302.692 119.616 272.22 156.896 262.326 200.696 C 242.283 178.058 212.747 164.047 181.04 164.047 C 121.795 164.047 73.595 211.293 73.595 269.364 C 73.595 269.569 73.595 269.771 73.597 269.976 C 33.858 272.965 2.451 305.65 2.451 345.398 C 2.451 387.106 37.032 421.037 79.539 421.037 L 286.34 421.037 C 323.599 421.037 356.057 400.528 372.609 370.422 C 381.732 372.244 390.917 373.167 400.082 373.167 C 418.364 373.167 436.552 369.545 453.926 362.349 C 476.803 352.872 496.835 337.492 511.86 317.87 C 514.588 314.309 515.212 309.56 513.493 305.414 Z  M 286.338 395.887 L 79.539 395.887 C 50.9 395.887 27.601 373.237 27.601 345.398 C 27.601 317.557 50.9 294.905 79.539 294.905 C 81.306 294.905 83.272 295.037 85.719 295.324 C 89.604 295.783 93.472 294.402 96.197 291.598 C 98.92 288.797 100.186 284.887 99.622 281.019 C 99.041 277.03 98.745 273.108 98.745 269.364 C 98.745 225.16 135.662 189.197 181.04 189.197 C 217.033 189.197 249.352 212.574 259.776 246.085 C 259.91 246.556 260.073 247.014 260.259 247.46 C 262.447 252.881 268.138 256.14 273.993 255.148 C 278.05 254.467 282.203 254.123 286.338 254.123 C 326.476 254.123 359.129 285.921 359.129 325.004 C 359.129 364.089 326.476 395.887 286.338 395.887 Z  M 444.3 339.113 C 424.226 347.428 402.845 349.915 381.772 346.514 C 383.394 339.595 384.281 332.402 384.281 325.006 C 384.281 272.053 340.344 228.975 286.34 228.975 C 285.575 228.975 284.811 229.027 284.046 229.043 C 285.136 183.544 312.724 142.685 355.586 124.932 C 367.95 119.81 381.085 116.889 394.352 116.249 C 374.641 153.167 372.078 197.591 388.335 236.835 C 404.588 276.074 437.817 305.676 477.856 317.843 C 468.019 326.771 456.666 333.991 444.3 339.113 Z " fill="rgb(0,0,0)"/></svg>
